!!!OTL: Folk song Number 15
!!!CNT: Chinese
**kern
*k[]
*M4/4
=1
4e
4d
(8a
8cc)
[(4dd
=2
2...dd]
16ee)
=3
(8.dd
16ee)
(8g
8a)
4cc
(8g
8a)
=4
(8.dd
16ee)
(8g
8a)
4cc
4r
=5
4e
4d
(8a
8cc)
4dd
=6
(8.a
16cc)
(8g
8a)
4g
4d
=7
(8.a
16cc)
(8g
8a)
[2g
=8
2.g]
4r
!! page 10
=9
4e
4d
(8a
8cc)
[(4dd
=10
2...dd]
16ee)
=11
(8.dd
16ee)
(8g
8a)
4cc
(8g
8a)
=12
(8.dd
16ee)
(8g
8a)
4cc
4r
=13
4e
4d
(8a
8cc)
4dd
=14
(8.a
16cc)
(8g
8a)
4g
4d
=15
(8.a
16cc)
(8g
8a)
[2g
=16
2.g]
4r
==
*-
!!!PPR: Yin yueh ch'u pan she
!!!OPR: Chung-kuo min ko Chung-kuo yin yueh yen chiu so pien [Chinese folk songs]
!!!OCL: Chung-kuo yin yueh yen chiu so
!!!PPP: Beijing, China
!!!PDT: 1959///
!!!SML: Edward Johnson Library, University of Toronto M1804.C4694C5
!!!PPG: pp.9-10
!!!ENC: David Huron
!!!EMD: Paul von Hippel updated this file in the following ways (1998/9/29/):
!!!EMD:  (1) changed the representation of slurs from curly braces to parentheses 
!!!EMD:  (2) changed freeform comments into reference records and tandem interpretations
!!!EMD:  (3) corrected the author, title, author, and call number of the printed source 
!!!EEV: Version 2.0
